assets/bi_plus-square (1).svg

<svg width="22" height="22" viewBox="0 0 22 22" fill="none" xmlns="http://www.w3.org/2000/svg">
<g clip-path="url(#clip0_3873_8731)">
<path d="M19.25 1.375C19.6147 1.375 19.9644 1.51987 20.2223 1.77773C20.4801 2.03559 20.625 2.38533 20.625 2.75V19.25C20.625 19.6147 20.4801 19.9644 20.2223 20.2223C19.9644 20.4801 19.6147 20.625 19.25 20.625H2.75C2.38533 20.625 2.03559 20.4801 1.77773 20.2223C1.51987 19.9644 1.375 19.6147 1.375 19.25V2.75C1.375 2.38533 1.51987 2.03559 1.77773 1.77773C2.03559 1.51987 2.38533 1.375 2.75 1.375H19.25ZM2.75 0C2.02065 0 1.32118 0.289731 0.805456 0.805456C0.289731 1.32118 0 2.02065 0 2.75L0 19.25C0 19.9793 0.289731 20.6788 0.805456 21.1945C1.32118 21.7103 2.02065 22 2.75 22H19.25C19.9793 22 20.6788 21.7103 21.1945 21.1945C21.7103 20.6788 22 19.9793 22 19.25V2.75C22 2.02065 21.7103 1.32118 21.1945 0.805456C20.6788 0.289731 19.9793 0 19.25 0L2.75 0Z" fill="#303030"/>
<path d="M11 5.5C11.1823 5.5 11.3572 5.57243 11.4861 5.70136C11.6151 5.8303 11.6875 6.00516 11.6875 6.1875V10.3125H15.8125C15.9948 10.3125 16.1697 10.3849 16.2986 10.5139C16.4276 10.6428 16.5 10.8177 16.5 11C16.5 11.1823 16.4276 11.3572 16.2986 11.4861C16.1697 11.6151 15.9948 11.6875 15.8125 11.6875H11.6875V15.8125C11.6875 15.9948 11.6151 16.1697 11.4861 16.2986C11.3572 16.4276 11.1823 16.5 11 16.5C10.8177 16.5 10.6428 16.4276 10.5139 16.2986C10.3849 16.1697 10.3125 15.9948 10.3125 15.8125V11.6875H6.1875C6.00516 11.6875 5.8303 11.6151 5.70136 11.4861C5.57243 11.3572 5.5 11.1823 5.5 11C5.5 10.8177 5.57243 10.6428 5.70136 10.5139C5.8303 10.3849 6.00516 10.3125 6.1875 10.3125H10.3125V6.1875C10.3125 6.00516 10.3849 5.8303 10.5139 5.70136C10.6428 5.57243 10.8177 5.5 11 5.5Z" fill="#303030"/>
</g>
<defs>
<clipPath id="clip0_3873_8731">
<rect width="22" height="22" fill="white"/>
</clipPath>
</defs>
</svg>

<svg xmlns="http://www.w3.org/2000/svg" width="22" height="22" fill="none" viewBox="0 0 22 22"><g fill="#303030" clip-path="url(#clip0_3873_8731)"><path d="M19.25 1.375a1.375 1.375 0 0 1 1.375 1.375v16.5a1.375 1.375 0 0 1-1.375 1.375H2.75a1.375 1.375 0 0 1-1.375-1.375V2.75A1.375 1.375 0 0 1 2.75 1.375zM2.75 0A2.75 2.75 0 0 0 0 2.75v16.5A2.75 2.75 0 0 0 2.75 22h16.5A2.75 2.75 0 0 0 22 19.25V2.75A2.75 2.75 0 0 0 19.25 0z"/><path d="M11 5.5a.687.687 0 0 1 .688.688v4.125h4.124a.687.687 0 1 1 0 1.374h-4.124v4.126a.687.687 0 1 1-1.376 0v-4.126H6.189a.687.687 0 1 1 0-1.374h4.125V6.187A.687.687 0 0 1 11 5.5"/></g><defs><clipPath id="clip0_3873_8731"><rect width="22" height="22" fill="#fff"/></clipPath></defs></svg>
